2016/2016-04-25/IMG_8768-2.xmp
<x:xmpmeta xmlns:x="adobe:ns:meta/" x:xmptk="Adobe XMP Core 5.5-c002 1.148022, 2012/07/15-18:06:45        ">
 <rdf:RDF xmlns:rdf="http://www.w3.org/1999/02/22-rdf-syntax-ns#">
  <rdf:Description rdf:about=""
    xmlns:xmp="http://ns.adobe.com/xap/1.0/"
    xmlns:tiff="http://ns.adobe.com/tiff/1.0/"
    xmlns:exif="http://ns.adobe.com/exif/1.0/"
    xmlns:dc="http://purl.org/dc/elements/1.1/"
    xmlns:aux="http://ns.adobe.com/exif/1.0/aux/"
    xmlns:photoshop="http://ns.adobe.com/photoshop/1.0/"
    xmlns:xmpMM="http://ns.adobe.com/xap/1.0/mm/"
    xmlns:stEvt="http://ns.adobe.com/xap/1.0/sType/ResourceEvent#"
    xmlns:crs="http://ns.adobe.com/camera-raw-settings/1.0/"
   xmp:ModifyDate="2016-04-25T07:05:14.00"
   xmp:CreateDate="2016-04-25T07:05:14.00"
   xmp:MetadataDate="2016-10-02T21:41:47-07:00"
   tiff:Make="Canon"
   tiff:Model="Canon EOS 6D"
   tiff:Orientation="1"
   tiff:ImageWidth="5472"
   tiff:ImageLength="3648"
   exif:ExifVersion="0230"
   exif:ExposureTime="1/40"
   exif:ShutterSpeedValue="5321928/1000000"
   exif:FNumber="10/1"
   exif:ApertureValue="6643856/1000000"
   exif:ExposureProgram="3"
   exif:SensitivityType="2"
   exif:RecommendedExposureIndex="250"
   exif:ExposureBiasValue="-2/3"
   exif:MaxApertureValue="3/1"
   exif:MeteringMode="5"
   exif:FocalLength="24/1"
   exif:CustomRendered="0"
   exif:ExposureMode="0"
   exif:WhiteBalance="0"
   exif:SceneCaptureType="0"
   exif:FocalPlaneXResolution="49807360/32768"
   exif:FocalPlaneYResolution="49807360/32768"
   exif:FocalPlaneResolutionUnit="3"
   exif:DateTimeOriginal="2016-04-25T07:05:14.00"
   exif:PixelXDimension="5472"
   exif:PixelYDimension="3648"
   dc:format="image/x-canon-cr2"
   aux:SerialNumber="302121001261"
   aux:LensInfo="24/1 70/1 0/0 0/0"
   aux:Lens="EF24-70mm f/2.8L II USM"
   aux:LensID="495"
   aux:LensSerialNumber="2620000599"
   aux:ImageNumber="0"
   aux:ApproximateFocusDistance="120/1"
   aux:FlashCompensation="0/1"
   aux:Firmware="1.1.6"
   photoshop:DateCreated="2016-04-25T07:05:14.00"
   photoshop:SidecarForExtension="CR2"
   photoshop:EmbeddedXMPDigest="AD0ACF660F79AC49FD004B2DD3BC0461"
   xmpMM:DocumentID="F278E1A0756C33DDC527BA5A7E6E034E"
   xmpMM:OriginalDocumentID="F278E1A0756C33DDC527BA5A7E6E034E"
   xmpMM:InstanceID="xmp.iid:d8b9f31f-1870-4591-92c4-2e8e6e0e2f2d"
   crs:Version="8.2"
   crs:ProcessVersion="6.7"
   crs:WhiteBalance="Custom"
   crs:AutoWhiteVersion="134348800"
   crs:Temperature="5018"
   crs:Tint="+3"
   crs:Saturation="+42"
   crs:Sharpness="75"
   crs:LuminanceSmoothing="0"
   crs:ColorNoiseReduction="25"
   crs:VignetteAmount="0"
   crs:ShadowTint="0"
   crs:RedHue="0"
   crs:RedSaturation="0"
   crs:GreenHue="0"
   crs:GreenSaturation="0"
   crs:BlueHue="0"
   crs:BlueSaturation="0"
   crs:Vibrance="-100"
   crs:HueAdjustmentRed="0"
   crs:HueAdjustmentOrange="0"
   crs:HueAdjustmentYellow="0"
   crs:HueAdjustmentGreen="0"
   crs:HueAdjustmentAqua="0"
   crs:HueAdjustmentBlue="0"
   crs:HueAdjustmentPurple="0"
   crs:HueAdjustmentMagenta="0"
   crs:SaturationAdjustmentRed="0"
   crs:SaturationAdjustmentOrange="0"
   crs:SaturationAdjustmentYellow="-27"
   crs:SaturationAdjustmentGreen="0"
   crs:SaturationAdjustmentAqua="0"
   crs:SaturationAdjustmentBlue="0"
   crs:SaturationAdjustmentPurple="0"
   crs:SaturationAdjustmentMagenta="0"
   crs:LuminanceAdjustmentRed="0"
   crs:LuminanceAdjustmentOrange="0"
   crs:LuminanceAdjustmentYellow="0"
   crs:LuminanceAdjustmentGreen="0"
   crs:LuminanceAdjustmentAqua="0"
   crs:LuminanceAdjustmentBlue="0"
   crs:LuminanceAdjustmentPurple="0"
   crs:LuminanceAdjustmentMagenta="0"
   crs:SplitToningShadowHue="225"
   crs:SplitToningShadowSaturation="7"
   crs:SplitToningHighlightHue="0"
   crs:SplitToningHighlightSaturation="0"
   crs:SplitToningBalance="0"
   crs:ParametricShadows="0"
   crs:ParametricDarks="0"
   crs:ParametricLights="0"
   crs:ParametricHighlights="0"
   crs:ParametricShadowSplit="25"
   crs:ParametricMidtoneSplit="50"
   crs:ParametricHighlightSplit="75"
   crs:SharpenRadius="+1.0"
   crs:SharpenDetail="25"
   crs:SharpenEdgeMasking="0"
   crs:PostCropVignetteAmount="-46"
   crs:PostCropVignetteMidpoint="0"
   crs:PostCropVignetteFeather="100"
   crs:PostCropVignetteRoundness="-7"
   crs:PostCropVignetteStyle="1"
   crs:PostCropVignetteHighlightContrast="0"
   crs:GrainAmount="0"
   crs:ColorNoiseReductionDetail="50"
   crs:ColorNoiseReductionSmoothness="50"
   crs:LensProfileEnable="1"
   crs:LensManualDistortionAmount="0"
   crs:PerspectiveVertical="0"
   crs:PerspectiveHorizontal="0"
   crs:PerspectiveRotate="0.0"
   crs:PerspectiveScale="100"
   crs:PerspectiveAspect="0"
   crs:PerspectiveUpright="1"
   crs:AutoLateralCA="1"
   crs:Exposure2012="+1.35"
   crs:Contrast2012="+36"
   crs:Highlights2012="-85"
   crs:Shadows2012="+100"
   crs:Whites2012="+65"
   crs:Blacks2012="0"
   crs:Clarity2012="+2"
   crs:DefringePurpleAmount="0"
   crs:DefringePurpleHueLo="30"
   crs:DefringePurpleHueHi="70"
   crs:DefringeGreenAmount="0"
   crs:DefringeGreenHueLo="40"
   crs:DefringeGreenHueHi="60"
   crs:ConvertToGrayscale="False"
   crs:ToneCurveName2012="Linear"
   crs:CameraProfile="Adobe Standard"
   crs:CameraProfileDigest="98BA1AFA1155D0472068BB57D3655975"
   crs:LensProfileSetup="LensDefaults"
   crs:LensProfileName="Adobe (Canon EF 24-70mm f/2.8 L II USM)"
   crs:LensProfileFilename="Canon EOS 5D Mark II (Canon EF 24-70mm f2.8 L II USM) - RAW.lcp"
   crs:LensProfileDigest="FCDB1453FA78D79BA6CC6F4006540CE5"
   crs:LensProfileDistortionScale="100"
   crs:LensProfileChromaticAberrationScale="100"
   crs:LensProfileVignettingScale="100"
   crs:UprightVersion="134217728"
   crs:UprightCenterMode="0"
   crs:UprightCenterNormX="0.50611"
   crs:UprightCenterNormY="0.459137"
   crs:UprightFocalMode="0"
   crs:UprightFocalLength35mm="23.8832"
   crs:UprightPreview="False"
   crs:UprightDependentDigest="4558C4F2DE59CB095EE8DD7805D536A6"
   crs:UprightTransformCount="5"
   crs:UprightTransform_0="1.000000000,0.000000000,0.000000000,0.000000000,1.000000000,0.000000000,0.000000000,0.000000000,1.000000000"
   crs:UprightTransform_1="1.073307923,0.045783105,-0.044870010,-0.011032466,1.126784649,-0.018131391,-0.013128135,0.087922700,1.000000000"
   crs:UprightTransform_2="1.078307283,0.050294784,-0.049170872,-0.015925419,1.133278193,-0.017363847,-0.012887222,0.092637423,1.000000000"
   crs:UprightTransform_3="1.003342238,0.001489741,-0.002415989,-0.003351918,1.003342238,0.000004840,0.000000000,0.000000000,1.000000000"
   crs:UprightTransform_4="1.091424125,0.050928836,-0.049530485,-0.008631419,1.140550755,-0.018413877,-0.000000180,0.093293328,1.000000000"
   crs:HasSettings="True"
   crs:AlreadyApplied="False"
   crs:RawFileName="IMG_8768.CR2">
   <exif:ISOSpeedRatings>
    <rdf:Seq>
     <rdf:li>250</rdf:li>
    </rdf:Seq>
   </exif:ISOSpeedRatings>
   <exif:Flash
    exif:Fired="False"
    exif:Return="0"
    exif:Mode="2"
    exif:Function="False"
    exif:RedEyeMode="False"/>
   <dc:creator>
    <rdf:Seq>
     <rdf:li>Matheus Felipe&#xA;matbhz</rdf:li>
    </rdf:Seq>
   </dc:creator>
   <xmpMM:History>
    <rdf:Seq>
     <rdf:li
      stEvt:action="saved"
      stEvt:instanceID="xmp.iid:d8b9f31f-1870-4591-92c4-2e8e6e0e2f2d"
      stEvt:when="2016-10-02T21:41:47-07:00"
      stEvt:softwareAgent="Adobe Photoshop Lightroom 5.0 (Macintosh)"
      stEvt:changed="/metadata"/>
    </rdf:Seq>
   </xmpMM:History>
   <crs:ToneCurvePV2012>
    <rdf:Seq>
     <rdf:li>0, 0</rdf:li>
     <rdf:li>255, 255</rdf:li>
    </rdf:Seq>
   </crs:ToneCurvePV2012>
   <crs:ToneCurvePV2012Red>
    <rdf:Seq>
     <rdf:li>0, 0</rdf:li>
     <rdf:li>255, 255</rdf:li>
    </rdf:Seq>
   </crs:ToneCurvePV2012Red>
   <crs:ToneCurvePV2012Green>
    <rdf:Seq>
     <rdf:li>0, 0</rdf:li>
     <rdf:li>255, 255</rdf:li>
    </rdf:Seq>
   </crs:ToneCurvePV2012Green>
   <crs:ToneCurvePV2012Blue>
    <rdf:Seq>
     <rdf:li>0, 0</rdf:li>
     <rdf:li>255, 255</rdf:li>
    </rdf:Seq>
   </crs:ToneCurvePV2012Blue>
   <crs:GradientBasedCorrections>
    <rdf:Seq>
     <rdf:li>
      <rdf:Description
       crs:What="Correction"
       crs:CorrectionAmount="1.000000"
       crs:CorrectionActive="true"
       crs:LocalExposure="0.000000"
       crs:LocalSaturation="0.000000"
       crs:LocalContrast="0.000000"
       crs:LocalClarity="0.000000"
       crs:LocalSharpness="0.000000"
       crs:LocalBrightness="0.000000"
       crs:LocalToningHue="0.000000"
       crs:LocalToningSaturation="0.000000"
       crs:LocalExposure2012="0.000000"
       crs:LocalContrast2012="0.000000"
       crs:LocalHighlights2012="-0.232368"
       crs:LocalShadows2012="0.000000"
       crs:LocalClarity2012="0.000000"
       crs:LocalLuminanceNoise="0.000000"
       crs:LocalMoire="0.000000"
       crs:LocalDefringe="0.000000"
       crs:LocalTemperature="0.000000"
       crs:LocalTint="0.000000">
      <crs:CorrectionMasks>
       <rdf:Seq>
        <rdf:li
         crs:What="Mask/Gradient"
         crs:MaskValue="1.000000"
         crs:ZeroX="0.426566"
         crs:ZeroY="0.530902"
         crs:FullX="0.387471"
         crs:FullY="0.283140"/>
       </rdf:Seq>
      </crs:CorrectionMasks>
      </rdf:Description>
     </rdf:li>
     <rdf:li>
      <rdf:Description
       crs:What="Correction"
       crs:CorrectionAmount="1.000000"
       crs:CorrectionActive="true"
       crs:LocalExposure="0.000000"
       crs:LocalSaturation="0.000000"
       crs:LocalContrast="0.000000"
       crs:LocalClarity="0.000000"
       crs:LocalSharpness="0.000000"
       crs:LocalBrightness="0.000000"
       crs:LocalToningHue="0.000000"
       crs:LocalToningSaturation="0.000000"
       crs:LocalExposure2012="-0.151806"
       crs:LocalContrast2012="0.000000"
       crs:LocalHighlights2012="0.012113"
       crs:LocalShadows2012="0.000000"
       crs:LocalClarity2012="0.000000"
       crs:LocalLuminanceNoise="0.000000"
       crs:LocalMoire="0.000000"
       crs:LocalDefringe="0.000000"
       crs:LocalTemperature="0.000000"
       crs:LocalTint="0.000000">
      <crs:CorrectionMasks>
       <rdf:Seq>
        <rdf:li
         crs:What="Mask/Gradient"
         crs:MaskValue="1.000000"
         crs:ZeroX="0.597084"
         crs:ZeroY="0.520515"
         crs:FullX="0.641760"
         crs:FullY="0.297670"/>
       </rdf:Seq>
      </crs:CorrectionMasks>
      </rdf:Description>
     </rdf:li>
    </rdf:Seq>
   </crs:GradientBasedCorrections>
  </rdf:Description>
 </rdf:RDF>
</x:xmpmeta>
