2017/2017-07-23/IMG_9203.xmp
<x:xmpmeta xmlns:x="adobe:ns:meta/" x:xmptk="Adobe XMP Core 5.6-c140 79.160451, 2017/05/06-01:08:21        ">
 <rdf:RDF xmlns:rdf="http://www.w3.org/1999/02/22-rdf-syntax-ns#">
  <rdf:Description rdf:about=""
    xmlns:xmp="http://ns.adobe.com/xap/1.0/"
    xmlns:tiff="http://ns.adobe.com/tiff/1.0/"
    xmlns:exif="http://ns.adobe.com/exif/1.0/"
    xmlns:dc="http://purl.org/dc/elements/1.1/"
    xmlns:aux="http://ns.adobe.com/exif/1.0/aux/"
    xmlns:exifEX="http://cipa.jp/exif/1.0/"
    xmlns:photoshop="http://ns.adobe.com/photoshop/1.0/"
    xmlns:xmpMM="http://ns.adobe.com/xap/1.0/mm/"
    xmlns:stEvt="http://ns.adobe.com/xap/1.0/sType/ResourceEvent#"
    xmlns:crs="http://ns.adobe.com/camera-raw-settings/1.0/"
    xmlns:mwg-rs="http://www.metadataworkinggroup.com/schemas/regions/"
    xmlns:stDim="http://ns.adobe.com/xap/1.0/sType/Dimensions#"
    xmlns:stArea="http://ns.adobe.com/xmp/sType/Area#"
   xmp:ModifyDate="2017-07-23T12:39:44.84"
   xmp:CreateDate="2017-07-23T12:39:44.84"
   xmp:MetadataDate="2018-07-23T21:33:21-07:00"
   tiff:Make="Canon"
   tiff:Model="Canon EOS 6D"
   tiff:Orientation="1"
   tiff:ImageWidth="5472"
   tiff:ImageLength="3648"
   exif:ExifVersion="0230"
   exif:ExposureTime="1/160"
   exif:ShutterSpeedValue="7321928/1000000"
   exif:FNumber="28/10"
   exif:ApertureValue="2970854/1000000"
   exif:ExposureProgram="3"
   exif:SensitivityType="2"
   exif:RecommendedExposureIndex="400"
   exif:ExposureBiasValue="-2/3"
   exif:MaxApertureValue="3/1"
   exif:MeteringMode="5"
   exif:FocalLength="70/1"
   exif:CustomRendered="0"
   exif:ExposureMode="0"
   exif:WhiteBalance="1"
   exif:SceneCaptureType="0"
   exif:FocalPlaneXResolution="49807360/32768"
   exif:FocalPlaneYResolution="49807360/32768"
   exif:FocalPlaneResolutionUnit="3"
   exif:DateTimeOriginal="2017-07-23T12:39:44.84"
   exif:PixelXDimension="5472"
   exif:PixelYDimension="3648"
   dc:format="image/x-canon-cr2"
   aux:SerialNumber="302121001261"
   aux:LensInfo="24/1 70/1 0/0 0/0"
   aux:Lens="EF24-70mm f/2.8L II USM"
   aux:LensID="495"
   aux:LensSerialNumber="2620000599"
   aux:ImageNumber="0"
   aux:ApproximateFocusDistance="450/100"
   aux:FlashCompensation="0/1"
   aux:Firmware="1.1.6"
   exifEX:LensModel="EF24-70mm f/2.8L II USM"
   photoshop:DateCreated="2017-07-23T12:39:44.84"
   photoshop:SidecarForExtension="CR2"
   photoshop:EmbeddedXMPDigest="AD0ACF660F79AC49FD004B2DD3BC0461"
   xmpMM:DocumentID="F770FD71AE835D20A802FD02745CD63C"
   xmpMM:OriginalDocumentID="F770FD71AE835D20A802FD02745CD63C"
   xmpMM:InstanceID="xmp.iid:555d60d0-e33d-447e-9ca5-4148fd69bfa9"
   crs:Version="10.2"
   crs:ProcessVersion="10.0"
   crs:WhiteBalance="Custom"
   crs:Temperature="6187"
   crs:Tint="+18"
   crs:Saturation="-26"
   crs:Sharpness="53"
   crs:LuminanceSmoothing="21"
   crs:ColorNoiseReduction="0"
   crs:VignetteAmount="0"
   crs:ShadowTint="0"
   crs:RedHue="0"
   crs:RedSaturation="+31"
   crs:GreenHue="0"
   crs:GreenSaturation="0"
   crs:BlueHue="0"
   crs:BlueSaturation="0"
   crs:Vibrance="+23"
   crs:HueAdjustmentRed="0"
   crs:HueAdjustmentOrange="0"
   crs:HueAdjustmentYellow="0"
   crs:HueAdjustmentGreen="0"
   crs:HueAdjustmentAqua="0"
   crs:HueAdjustmentBlue="0"
   crs:HueAdjustmentPurple="0"
   crs:HueAdjustmentMagenta="0"
   crs:SaturationAdjustmentRed="-60"
   crs:SaturationAdjustmentOrange="-13"
   crs:SaturationAdjustmentYellow="-25"
   crs:SaturationAdjustmentGreen="-57"
   crs:SaturationAdjustmentAqua="-2"
   crs:SaturationAdjustmentBlue="0"
   crs:SaturationAdjustmentPurple="0"
   crs:SaturationAdjustmentMagenta="0"
   crs:LuminanceAdjustmentRed="0"
   crs:LuminanceAdjustmentOrange="0"
   crs:LuminanceAdjustmentYellow="-55"
   crs:LuminanceAdjustmentGreen="+37"
   crs:LuminanceAdjustmentAqua="0"
   crs:LuminanceAdjustmentBlue="0"
   crs:LuminanceAdjustmentPurple="0"
   crs:LuminanceAdjustmentMagenta="0"
   crs:SplitToningShadowHue="0"
   crs:SplitToningShadowSaturation="0"
   crs:SplitToningHighlightHue="0"
   crs:SplitToningHighlightSaturation="0"
   crs:SplitToningBalance="0"
   crs:ParametricShadows="0"
   crs:ParametricDarks="0"
   crs:ParametricLights="0"
   crs:ParametricHighlights="0"
   crs:ParametricShadowSplit="25"
   crs:ParametricMidtoneSplit="50"
   crs:ParametricHighlightSplit="75"
   crs:SharpenRadius="+1.0"
   crs:SharpenDetail="50"
   crs:SharpenEdgeMasking="0"
   crs:PostCropVignetteAmount="-24"
   crs:PostCropVignetteMidpoint="31"
   crs:PostCropVignetteFeather="50"
   crs:PostCropVignetteRoundness="0"
   crs:PostCropVignetteStyle="1"
   crs:PostCropVignetteHighlightContrast="0"
   crs:GrainAmount="0"
   crs:LuminanceNoiseReductionDetail="50"
   crs:LuminanceNoiseReductionContrast="0"
   crs:LensProfileEnable="1"
   crs:LensManualDistortionAmount="0"
   crs:PerspectiveVertical="0"
   crs:PerspectiveHorizontal="0"
   crs:PerspectiveRotate="0.0"
   crs:PerspectiveScale="100"
   crs:PerspectiveAspect="0"
   crs:PerspectiveUpright="4"
   crs:PerspectiveX="0.00"
   crs:PerspectiveY="0.00"
   crs:AutoLateralCA="1"
   crs:Exposure2012="-0.55"
   crs:Contrast2012="+57"
   crs:Highlights2012="-2"
   crs:Shadows2012="+26"
   crs:Whites2012="+20"
   crs:Blacks2012="+51"
   crs:Clarity2012="-31"
   crs:DefringePurpleAmount="0"
   crs:DefringePurpleHueLo="30"
   crs:DefringePurpleHueHi="70"
   crs:DefringeGreenAmount="0"
   crs:DefringeGreenHueLo="40"
   crs:DefringeGreenHueHi="60"
   crs:Dehaze="0"
   crs:ConvertToGrayscale="False"
   crs:ToneCurveName="Medium Contrast"
   crs:ToneCurveName2012="Linear"
   crs:CameraProfile="Adobe Standard"
   crs:CameraProfileDigest="98BA1AFA1155D0472068BB57D3655975"
   crs:LensProfileSetup="LensDefaults"
   crs:LensProfileName="Adobe (Canon EF 24-70mm f/2.8 L II USM)"
   crs:LensProfileFilename="Canon EOS 5D Mark II (Canon EF 24-70mm f2.8 L II USM) - RAW.lcp"
   crs:LensProfileDigest="AFEEACDA8777F259982DCD59A5178FC0"
   crs:LensProfileDistortionScale="100"
   crs:LensProfileChromaticAberrationScale="100"
   crs:LensProfileVignettingScale="100"
   crs:UprightVersion="151388160"
   crs:UprightCenterMode="0"
   crs:UprightCenterNormX="0.5"
   crs:UprightCenterNormY="0.5"
   crs:UprightFocalMode="0"
   crs:UprightFocalLength35mm="69.6592"
   crs:UprightPreview="False"
   crs:UprightDependentDigest="2F1C079C21AE0DC1773923B568651858"
   crs:UprightTransformCount="6"
   crs:UprightTransform_0="1.000000000,0.000000000,0.000000000,0.000000000,1.000000000,0.000000000,0.000000000,0.000000000,1.000000000"
   crs:UprightTransform_1="1.101732939,0.029943178,-0.029380973,0.035360416,1.102159368,-0.034773138,0.053936276,0.047492743,1.000000000"
   crs:UprightTransform_2="1.027518339,0.019187465,-0.018919552,-0.012437942,1.045744833,-0.003028276,-0.001185934,0.028198718,1.000000000"
   crs:UprightTransform_3="1.011833469,0.005345164,-0.008589317,-0.012026619,1.011833468,0.000096576,0.000000000,0.000000000,1.000000000"
   crs:UprightTransform_4="1.028716194,0.019210032,-0.018934561,-0.011562683,1.046375306,-0.003233642,-0.000000033,0.028221480,1.000000000"
   crs:UprightTransform_5="1.000000000,0.000000000,0.000000000,0.000000000,1.000000000,0.000000000,0.000000000,0.000000000,1.000000000"
   crs:UprightFourSegmentsCount="0"
   crs:HasSettings="True"
   crs:AlreadyApplied="False"
   crs:RawFileName="IMG_9203.CR2">
   <exif:ISOSpeedRatings>
    <rdf:Seq>
     <rdf:li>400</rdf:li>
    </rdf:Seq>
   </exif:ISOSpeedRatings>
   <exif:Flash
    exif:Fired="False"
    exif:Return="0"
    exif:Mode="2"
    exif:Function="False"
    exif:RedEyeMode="False"/>
   <dc:creator>
    <rdf:Seq>
     <rdf:li>Matheus Felipe&#xA;matbhz</rdf:li>
    </rdf:Seq>
   </dc:creator>
   <xmpMM:History>
    <rdf:Seq>
     <rdf:li
      stEvt:action="saved"
      stEvt:instanceID="xmp.iid:555d60d0-e33d-447e-9ca5-4148fd69bfa9"
      stEvt:when="2018-07-23T21:33:21-07:00"
      stEvt:softwareAgent="Adobe Photoshop Lightroom Classic 7.2 (Macintosh)"
      stEvt:changed="/metadata"/>
    </rdf:Seq>
   </xmpMM:History>
   <crs:ToneCurve>
    <rdf:Seq>
     <rdf:li>0, 0</rdf:li>
     <rdf:li>32, 22</rdf:li>
     <rdf:li>64, 56</rdf:li>
     <rdf:li>128, 128</rdf:li>
     <rdf:li>192, 196</rdf:li>
     <rdf:li>255, 255</rdf:li>
    </rdf:Seq>
   </crs:ToneCurve>
   <crs:ToneCurveRed>
    <rdf:Seq>
     <rdf:li>0, 0</rdf:li>
     <rdf:li>255, 255</rdf:li>
    </rdf:Seq>
   </crs:ToneCurveRed>
   <crs:ToneCurveGreen>
    <rdf:Seq>
     <rdf:li>0, 0</rdf:li>
     <rdf:li>255, 255</rdf:li>
    </rdf:Seq>
   </crs:ToneCurveGreen>
   <crs:ToneCurveBlue>
    <rdf:Seq>
     <rdf:li>0, 0</rdf:li>
     <rdf:li>255, 255</rdf:li>
    </rdf:Seq>
   </crs:ToneCurveBlue>
   <crs:ToneCurvePV2012>
    <rdf:Seq>
     <rdf:li>0, 0</rdf:li>
     <rdf:li>255, 255</rdf:li>
    </rdf:Seq>
   </crs:ToneCurvePV2012>
   <crs:ToneCurvePV2012Red>
    <rdf:Seq>
     <rdf:li>0, 0</rdf:li>
     <rdf:li>255, 255</rdf:li>
    </rdf:Seq>
   </crs:ToneCurvePV2012Red>
   <crs:ToneCurvePV2012Green>
    <rdf:Seq>
     <rdf:li>0, 0</rdf:li>
     <rdf:li>255, 255</rdf:li>
    </rdf:Seq>
   </crs:ToneCurvePV2012Green>
   <crs:ToneCurvePV2012Blue>
    <rdf:Seq>
     <rdf:li>0, 0</rdf:li>
     <rdf:li>255, 255</rdf:li>
    </rdf:Seq>
   </crs:ToneCurvePV2012Blue>
   <crs:PaintBasedCorrections>
    <rdf:Seq>
     <rdf:li>
      <rdf:Description
       crs:What="Correction"
       crs:CorrectionAmount="1.000000"
       crs:CorrectionActive="true"
       crs:LocalExposure="0.000000"
       crs:LocalSaturation="0.000000"
       crs:LocalContrast="0.000000"
       crs:LocalClarity="0.000000"
       crs:LocalSharpness="0.000000"
       crs:LocalBrightness="0.000000"
       crs:LocalToningHue="240.000000"
       crs:LocalToningSaturation="0.000000"
       crs:LocalExposure2012="0.082500"
       crs:LocalContrast2012="0.000000"
       crs:LocalHighlights2012="0.000000"
       crs:LocalShadows2012="0.000000"
       crs:LocalWhites2012="0.000000"
       crs:LocalBlacks2012="0.000000"
       crs:LocalClarity2012="0.000000"
       crs:LocalDehaze="0.000000"
       crs:LocalLuminanceNoise="0.000000"
       crs:LocalMoire="0.000000"
       crs:LocalDefringe="0.000000"
       crs:LocalTemperature="0.000000"
       crs:LocalTint="0.000000">
      <crs:CorrectionMasks>
       <rdf:Seq>
        <rdf:li>
         <rdf:Description
          crs:What="Mask/Paint"
          crs:MaskValue="1.000000"
          crs:Radius="0.092376"
          crs:Flow="1.000000"
          crs:CenterWeight="0.152628">
         <crs:Dabs>
          <rdf:Seq>
           <rdf:li>d 0.532351 0.941015</rdf:li>
           <rdf:li>r 0.092343</rdf:li>
           <rdf:li>d 0.532467 0.899489</rdf:li>
           <rdf:li>r 0.092310</rdf:li>
           <rdf:li>d 0.541370 0.883213</rdf:li>
           <rdf:li>r 0.092319</rdf:li>
           <rdf:li>d 0.546394 0.923890</rdf:li>
           <rdf:li>r 0.092298</rdf:li>
           <rdf:li>d 0.547919 0.900040</rdf:li>
           <rdf:li>r 0.092284</rdf:li>
           <rdf:li>d 0.549381 0.858678</rdf:li>
           <rdf:li>r 0.092314</rdf:li>
           <rdf:li>d 0.542060 0.819366</rdf:li>
           <rdf:li>r 0.092353</rdf:li>
           <rdf:li>d 0.539297 0.778089</rdf:li>
           <rdf:li>r 0.092328</rdf:li>
           <rdf:li>d 0.552499 0.765294</rdf:li>
           <rdf:li>r 0.092299</rdf:li>
           <rdf:li>d 0.570037 0.751410</rdf:li>
           <rdf:li>r 0.092368</rdf:li>
           <rdf:li>d 0.565906 0.711228</rdf:li>
           <rdf:li>r 0.092472</rdf:li>
           <rdf:li>d 0.550367 0.678195</rdf:li>
           <rdf:li>r 0.092525</rdf:li>
           <rdf:li>d 0.527666 0.687179</rdf:li>
           <rdf:li>r 0.092499</rdf:li>
           <rdf:li>d 0.516002 0.724754</rdf:li>
           <rdf:li>r 0.092441</rdf:li>
           <rdf:li>d 0.517331 0.763398</rdf:li>
           <rdf:li>r 0.092512</rdf:li>
           <rdf:li>d 0.512926 0.723809</rdf:li>
           <rdf:li>r 0.092610</rdf:li>
           <rdf:li>d 0.505975 0.683485</rdf:li>
           <rdf:li>r 0.092714</rdf:li>
           <rdf:li>d 0.501988 0.642284</rdf:li>
          </rdf:Seq>
         </crs:Dabs>
         </rdf:Description>
        </rdf:li>
        <rdf:li>
         <rdf:Description
          crs:What="Mask/Paint"
          crs:MaskValue="1.000000"
          crs:Radius="0.045242"
          crs:Flow="1.000000"
          crs:CenterWeight="0.152628">
         <crs:Dabs>
          <rdf:Seq>
           <rdf:li>d 0.505909 0.604072</rdf:li>
           <rdf:li>r 0.045276</rdf:li>
           <rdf:li>d 0.501433 0.584906</rdf:li>
           <rdf:li>r 0.045311</rdf:li>
           <rdf:li>d 0.497785 0.565505</rdf:li>
           <rdf:li>r 0.045349</rdf:li>
           <rdf:li>d 0.492002 0.547052</rdf:li>
           <rdf:li>r 0.045389</rdf:li>
           <rdf:li>d 0.486828 0.528165</rdf:li>
           <rdf:li>r 0.045429</rdf:li>
           <rdf:li>d 0.481838 0.509523</rdf:li>
           <rdf:li>r 0.045463</rdf:li>
           <rdf:li>d 0.482279 0.489124</rdf:li>
           <rdf:li>r 0.045486</rdf:li>
           <rdf:li>d 0.486222 0.471260</rdf:li>
          </rdf:Seq>
         </crs:Dabs>
         </rdf:Description>
        </rdf:li>
       </rdf:Seq>
      </crs:CorrectionMasks>
      <crs:CorrectionRangeMask
       crs:Version="+2"
       crs:Type="0"
       crs:ColorAmount="0.500000"
       crs:LumMin="0.000000"
       crs:LumMax="1.000000"
       crs:LumFeather="0.500000"/>
      </rdf:Description>
     </rdf:li>
    </rdf:Seq>
   </crs:PaintBasedCorrections>
   <mwg-rs:Regions rdf:parseType="Resource">
    <mwg-rs:AppliedToDimensions
     stDim:w="5472"
     stDim:h="3648"
     stDim:unit="pixel"/>
    <mwg-rs:RegionList>
     <rdf:Bag>
      <rdf:li>
       <rdf:Description
        mwg-rs:Rotation="0.01047"
        mwg-rs:Type="Face">
       <mwg-rs:Area
        stArea:h="0.11838"
        stArea:w="0.07884"
        stArea:x="0.48150"
        stArea:y="0.49112"/>
       </rdf:Description>
      </rdf:li>
     </rdf:Bag>
    </mwg-rs:RegionList>
   </mwg-rs:Regions>
  </rdf:Description>
 </rdf:RDF>
</x:xmpmeta>
