2017/2017-08-08/IMG_9478.xmp
<x:xmpmeta xmlns:x="adobe:ns:meta/" x:xmptk="Adobe XMP Core 5.6-c140 79.160451, 2017/05/06-01:08:21        ">
 <rdf:RDF xmlns:rdf="http://www.w3.org/1999/02/22-rdf-syntax-ns#">
  <rdf:Description rdf:about=""
    xmlns:xmp="http://ns.adobe.com/xap/1.0/"
    xmlns:tiff="http://ns.adobe.com/tiff/1.0/"
    xmlns:exif="http://ns.adobe.com/exif/1.0/"
    xmlns:dc="http://purl.org/dc/elements/1.1/"
    xmlns:aux="http://ns.adobe.com/exif/1.0/aux/"
    xmlns:exifEX="http://cipa.jp/exif/1.0/"
    xmlns:photoshop="http://ns.adobe.com/photoshop/1.0/"
    xmlns:xmpMM="http://ns.adobe.com/xap/1.0/mm/"
    xmlns:stEvt="http://ns.adobe.com/xap/1.0/sType/ResourceEvent#"
    xmlns:crs="http://ns.adobe.com/camera-raw-settings/1.0/"
   xmp:ModifyDate="2017-08-08T05:24:00.00"
   xmp:CreateDate="2017-08-08T05:24:00.00"
   xmp:MetadataDate="2018-07-21T23:08:49-07:00"
   tiff:Make="Canon"
   tiff:Model="Canon EOS 6D"
   tiff:Orientation="1"
   tiff:ImageWidth="5472"
   tiff:ImageLength="3648"
   exif:ExifVersion="0230"
   exif:ExposureTime="1/160"
   exif:ShutterSpeedValue="7321928/1000000"
   exif:FNumber="28/10"
   exif:ApertureValue="2970854/1000000"
   exif:ExposureProgram="3"
   exif:SensitivityType="2"
   exif:RecommendedExposureIndex="125"
   exif:ExposureBiasValue="-1/1"
   exif:MaxApertureValue="3/1"
   exif:MeteringMode="5"
   exif:FocalLength="24/1"
   exif:CustomRendered="0"
   exif:ExposureMode="0"
   exif:WhiteBalance="0"
   exif:SceneCaptureType="0"
   exif:FocalPlaneXResolution="49807360/32768"
   exif:FocalPlaneYResolution="49807360/32768"
   exif:FocalPlaneResolutionUnit="3"
   exif:DateTimeOriginal="2017-08-08T05:24:00.00"
   exif:PixelXDimension="5472"
   exif:PixelYDimension="3648"
   dc:format="image/x-canon-cr2"
   aux:SerialNumber="302121001261"
   aux:LensInfo="24/1 70/1 0/0 0/0"
   aux:Lens="EF24-70mm f/2.8L II USM"
   aux:LensID="495"
   aux:LensSerialNumber="2620000599"
   aux:ImageNumber="0"
   aux:ApproximateFocusDistance="259/100"
   aux:FlashCompensation="0/1"
   aux:Firmware="1.1.6"
   exifEX:LensModel="EF24-70mm f/2.8L II USM"
   photoshop:DateCreated="2017-08-08T05:24:00.00"
   photoshop:SidecarForExtension="CR2"
   photoshop:EmbeddedXMPDigest="AD0ACF660F79AC49FD004B2DD3BC0461"
   xmpMM:DocumentID="2CA0CBE58B86BF5E9F85A2EB7842C3A8"
   xmpMM:OriginalDocumentID="2CA0CBE58B86BF5E9F85A2EB7842C3A8"
   xmpMM:InstanceID="xmp.iid:2e6eb8a8-2f08-490b-b268-b5b98ebe6569"
   crs:Version="10.2"
   crs:ProcessVersion="10.0"
   crs:WhiteBalance="Custom"
   crs:Temperature="7250"
   crs:Tint="+19"
   crs:Saturation="+27"
   crs:Sharpness="25"
   crs:LuminanceSmoothing="0"
   crs:ColorNoiseReduction="25"
   crs:VignetteAmount="0"
   crs:ShadowTint="0"
   crs:RedHue="0"
   crs:RedSaturation="0"
   crs:GreenHue="0"
   crs:GreenSaturation="0"
   crs:BlueHue="0"
   crs:BlueSaturation="0"
   crs:Vibrance="0"
   crs:HueAdjustmentRed="0"
   crs:HueAdjustmentOrange="0"
   crs:HueAdjustmentYellow="0"
   crs:HueAdjustmentGreen="0"
   crs:HueAdjustmentAqua="0"
   crs:HueAdjustmentBlue="0"
   crs:HueAdjustmentPurple="0"
   crs:HueAdjustmentMagenta="0"
   crs:SaturationAdjustmentRed="0"
   crs:SaturationAdjustmentOrange="0"
   crs:SaturationAdjustmentYellow="0"
   crs:SaturationAdjustmentGreen="0"
   crs:SaturationAdjustmentAqua="0"
   crs:SaturationAdjustmentBlue="0"
   crs:SaturationAdjustmentPurple="0"
   crs:SaturationAdjustmentMagenta="0"
   crs:LuminanceAdjustmentRed="0"
   crs:LuminanceAdjustmentOrange="0"
   crs:LuminanceAdjustmentYellow="0"
   crs:LuminanceAdjustmentGreen="0"
   crs:LuminanceAdjustmentAqua="0"
   crs:LuminanceAdjustmentBlue="0"
   crs:LuminanceAdjustmentPurple="0"
   crs:LuminanceAdjustmentMagenta="0"
   crs:SplitToningShadowHue="0"
   crs:SplitToningShadowSaturation="0"
   crs:SplitToningHighlightHue="0"
   crs:SplitToningHighlightSaturation="0"
   crs:SplitToningBalance="0"
   crs:ParametricShadows="0"
   crs:ParametricDarks="0"
   crs:ParametricLights="0"
   crs:ParametricHighlights="0"
   crs:ParametricShadowSplit="25"
   crs:ParametricMidtoneSplit="50"
   crs:ParametricHighlightSplit="75"
   crs:SharpenRadius="+1.0"
   crs:SharpenDetail="25"
   crs:SharpenEdgeMasking="0"
   crs:PostCropVignetteAmount="-27"
   crs:PostCropVignetteMidpoint="26"
   crs:PostCropVignetteFeather="50"
   crs:PostCropVignetteRoundness="0"
   crs:PostCropVignetteStyle="1"
   crs:PostCropVignetteHighlightContrast="0"
   crs:GrainAmount="0"
   crs:ColorNoiseReductionDetail="50"
   crs:ColorNoiseReductionSmoothness="50"
   crs:LensProfileEnable="1"
   crs:LensManualDistortionAmount="0"
   crs:PerspectiveVertical="0"
   crs:PerspectiveHorizontal="0"
   crs:PerspectiveRotate="0.0"
   crs:PerspectiveScale="100"
   crs:PerspectiveAspect="0"
   crs:PerspectiveUpright="0"
   crs:PerspectiveX="0.00"
   crs:PerspectiveY="0.00"
   crs:AutoLateralCA="1"
   crs:Exposure2012="-1.50"
   crs:Contrast2012="0"
   crs:Highlights2012="0"
   crs:Shadows2012="+48"
   crs:Whites2012="+100"
   crs:Blacks2012="+16"
   crs:Clarity2012="+20"
   crs:DefringePurpleAmount="0"
   crs:DefringePurpleHueLo="30"
   crs:DefringePurpleHueHi="70"
   crs:DefringeGreenAmount="0"
   crs:DefringeGreenHueLo="40"
   crs:DefringeGreenHueHi="60"
   crs:Dehaze="0"
   crs:ConvertToGrayscale="False"
   crs:ToneCurveName="Medium Contrast"
   crs:ToneCurveName2012="Linear"
   crs:CameraProfile="Adobe Standard"
   crs:CameraProfileDigest="98BA1AFA1155D0472068BB57D3655975"
   crs:LensProfileSetup="LensDefaults"
   crs:LensProfileName="Adobe (Canon EF 24-70mm f/2.8 L II USM)"
   crs:LensProfileFilename="Canon EOS 5D Mark II (Canon EF 24-70mm f2.8 L II USM) - RAW.lcp"
   crs:LensProfileDigest="AFEEACDA8777F259982DCD59A5178FC0"
   crs:LensProfileDistortionScale="100"
   crs:LensProfileChromaticAberrationScale="100"
   crs:LensProfileVignettingScale="100"
   crs:UprightVersion="151388160"
   crs:UprightCenterMode="0"
   crs:UprightCenterNormX="0.5"
   crs:UprightCenterNormY="0.5"
   crs:UprightFocalMode="0"
   crs:UprightFocalLength35mm="35"
   crs:UprightPreview="False"
   crs:UprightTransformCount="6"
   crs:UprightFourSegmentsCount="0"
   crs:HasSettings="True"
   crs:CropTop="0"
   crs:CropLeft="0.003683"
   crs:CropBottom="0.97162"
   crs:CropRight="0.975303"
   crs:CropAngle="0"
   crs:CropConstrainToWarp="0"
   crs:HasCrop="True"
   crs:AlreadyApplied="False"
   crs:RawFileName="IMG_9478.CR2">
   <exif:ISOSpeedRatings>
    <rdf:Seq>
     <rdf:li>125</rdf:li>
    </rdf:Seq>
   </exif:ISOSpeedRatings>
   <exif:Flash
    exif:Fired="False"
    exif:Return="0"
    exif:Mode="2"
    exif:Function="False"
    exif:RedEyeMode="False"/>
   <dc:creator>
    <rdf:Seq>
     <rdf:li>Matheus Felipe&#xA;matbhz</rdf:li>
    </rdf:Seq>
   </dc:creator>
   <xmpMM:History>
    <rdf:Seq>
     <rdf:li
      stEvt:action="saved"
      stEvt:instanceID="xmp.iid:2e6eb8a8-2f08-490b-b268-b5b98ebe6569"
      stEvt:when="2018-07-21T23:08:49-07:00"
      stEvt:softwareAgent="Adobe Photoshop Lightroom Classic 7.2 (Macintosh)"
      stEvt:changed="/metadata"/>
    </rdf:Seq>
   </xmpMM:History>
   <crs:ToneCurve>
    <rdf:Seq>
     <rdf:li>0, 0</rdf:li>
     <rdf:li>32, 22</rdf:li>
     <rdf:li>64, 56</rdf:li>
     <rdf:li>128, 128</rdf:li>
     <rdf:li>192, 196</rdf:li>
     <rdf:li>255, 255</rdf:li>
    </rdf:Seq>
   </crs:ToneCurve>
   <crs:ToneCurveRed>
    <rdf:Seq>
     <rdf:li>0, 0</rdf:li>
     <rdf:li>255, 255</rdf:li>
    </rdf:Seq>
   </crs:ToneCurveRed>
   <crs:ToneCurveGreen>
    <rdf:Seq>
     <rdf:li>0, 0</rdf:li>
     <rdf:li>255, 255</rdf:li>
    </rdf:Seq>
   </crs:ToneCurveGreen>
   <crs:ToneCurveBlue>
    <rdf:Seq>
     <rdf:li>0, 0</rdf:li>
     <rdf:li>255, 255</rdf:li>
    </rdf:Seq>
   </crs:ToneCurveBlue>
   <crs:ToneCurvePV2012>
    <rdf:Seq>
     <rdf:li>0, 0</rdf:li>
     <rdf:li>255, 255</rdf:li>
    </rdf:Seq>
   </crs:ToneCurvePV2012>
   <crs:ToneCurvePV2012Red>
    <rdf:Seq>
     <rdf:li>0, 0</rdf:li>
     <rdf:li>255, 255</rdf:li>
    </rdf:Seq>
   </crs:ToneCurvePV2012Red>
   <crs:ToneCurvePV2012Green>
    <rdf:Seq>
     <rdf:li>0, 0</rdf:li>
     <rdf:li>255, 255</rdf:li>
    </rdf:Seq>
   </crs:ToneCurvePV2012Green>
   <crs:ToneCurvePV2012Blue>
    <rdf:Seq>
     <rdf:li>0, 0</rdf:li>
     <rdf:li>255, 255</rdf:li>
    </rdf:Seq>
   </crs:ToneCurvePV2012Blue>
   <crs:GradientBasedCorrections>
    <rdf:Seq>
     <rdf:li>
      <rdf:Description
       crs:What="Correction"
       crs:CorrectionAmount="1.000000"
       crs:CorrectionActive="true"
       crs:LocalExposure="0.000000"
       crs:LocalSaturation="0.000000"
       crs:LocalContrast="0.000000"
       crs:LocalClarity="0.000000"
       crs:LocalSharpness="0.000000"
       crs:LocalBrightness="0.000000"
       crs:LocalToningHue="240.000000"
       crs:LocalToningSaturation="0.000000"
       crs:LocalExposure2012="-0.200428"
       crs:LocalContrast2012="0.000000"
       crs:LocalHighlights2012="0.000000"
       crs:LocalShadows2012="0.000000"
       crs:LocalWhites2012="0.000000"
       crs:LocalBlacks2012="0.000000"
       crs:LocalClarity2012="0.535347"
       crs:LocalDehaze="0.000000"
       crs:LocalLuminanceNoise="0.000000"
       crs:LocalMoire="0.000000"
       crs:LocalDefringe="0.000000"
       crs:LocalTemperature="0.000000"
       crs:LocalTint="0.000000">
      <crs:CorrectionMasks>
       <rdf:Seq>
        <rdf:li
         crs:What="Mask/Gradient"
         crs:MaskValue="1.000000"
         crs:ZeroX="0.525325"
         crs:ZeroY="0.695766"
         crs:FullX="0.525166"
         crs:FullY="0.797693"/>
       </rdf:Seq>
      </crs:CorrectionMasks>
      <crs:CorrectionRangeMask
       crs:Version="+2"
       crs:Type="0"
       crs:ColorAmount="0.500000"
       crs:LumMin="0.000000"
       crs:LumMax="1.000000"
       crs:LumFeather="0.500000"/>
      </rdf:Description>
     </rdf:li>
    </rdf:Seq>
   </crs:GradientBasedCorrections>
   <crs:CircularGradientBasedCorrections>
    <rdf:Seq>
     <rdf:li>
      <rdf:Description
       crs:What="Correction"
       crs:CorrectionAmount="1.000000"
       crs:CorrectionActive="true"
       crs:LocalExposure="0.000000"
       crs:LocalSaturation="0.000000"
       crs:LocalContrast="0.000000"
       crs:LocalClarity="0.000000"
       crs:LocalSharpness="0.000000"
       crs:LocalBrightness="0.000000"
       crs:LocalToningHue="240.000000"
       crs:LocalToningSaturation="0.000000"
       crs:LocalExposure2012="0.987233"
       crs:LocalContrast2012="0.000000"
       crs:LocalHighlights2012="0.000000"
       crs:LocalShadows2012="0.000000"
       crs:LocalWhites2012="0.000000"
       crs:LocalBlacks2012="0.000000"
       crs:LocalClarity2012="0.000000"
       crs:LocalDehaze="0.000000"
       crs:LocalLuminanceNoise="0.000000"
       crs:LocalMoire="0.000000"
       crs:LocalDefringe="0.000000"
       crs:LocalTemperature="0.000000"
       crs:LocalTint="0.000000">
      <crs:CorrectionMasks>
       <rdf:Seq>
        <rdf:li
         crs:What="Mask/CircularGradient"
         crs:MaskValue="1.000000"
         crs:Top="0.224726"
         crs:Left="0.263100"
         crs:Bottom="0.377298"
         crs:Right="0.412719"
         crs:Angle="0.000000"
         crs:Midpoint="+50"
         crs:Roundness="0"
         crs:Feather="+89"
         crs:Flipped="true"
         crs:Version="+2"/>
       </rdf:Seq>
      </crs:CorrectionMasks>
      <crs:CorrectionRangeMask
       crs:Version="+2"
       crs:Type="0"
       crs:ColorAmount="0.500000"
       crs:LumMin="0.000000"
       crs:LumMax="1.000000"
       crs:LumFeather="0.500000"/>
      </rdf:Description>
     </rdf:li>
     <rdf:li>
      <rdf:Description
       crs:What="Correction"
       crs:CorrectionAmount="1.000000"
       crs:CorrectionActive="true"
       crs:LocalExposure="0.000000"
       crs:LocalSaturation="0.000000"
       crs:LocalContrast="0.000000"
       crs:LocalClarity="0.000000"
       crs:LocalSharpness="0.000000"
       crs:LocalBrightness="0.000000"
       crs:LocalToningHue="240.000000"
       crs:LocalToningSaturation="0.000000"
       crs:LocalExposure2012="0.987233"
       crs:LocalContrast2012="0.000000"
       crs:LocalHighlights2012="0.000000"
       crs:LocalShadows2012="0.000000"
       crs:LocalWhites2012="0.000000"
       crs:LocalBlacks2012="0.000000"
       crs:LocalClarity2012="0.000000"
       crs:LocalDehaze="0.000000"
       crs:LocalLuminanceNoise="0.000000"
       crs:LocalMoire="0.000000"
       crs:LocalDefringe="0.000000"
       crs:LocalTemperature="0.000000"
       crs:LocalTint="0.000000">
      <crs:CorrectionMasks>
       <rdf:Seq>
        <rdf:li
         crs:What="Mask/CircularGradient"
         crs:MaskValue="1.000000"
         crs:Top="0.230284"
         crs:Left="0.556140"
         crs:Bottom="0.396162"
         crs:Right="0.718807"
         crs:Angle="0.000000"
         crs:Midpoint="+50"
         crs:Roundness="0"
         crs:Feather="+89"
         crs:Flipped="true"
         crs:Version="+2"/>
       </rdf:Seq>
      </crs:CorrectionMasks>
      <crs:CorrectionRangeMask
       crs:Version="+2"
       crs:Type="0"
       crs:ColorAmount="0.500000"
       crs:LumMin="0.000000"
       crs:LumMax="1.000000"
       crs:LumFeather="0.500000"/>
      </rdf:Description>
     </rdf:li>
     <rdf:li>
      <rdf:Description
       crs:What="Correction"
       crs:CorrectionAmount="1.000000"
       crs:CorrectionActive="true"
       crs:LocalExposure="0.000000"
       crs:LocalSaturation="0.000000"
       crs:LocalContrast="0.000000"
       crs:LocalClarity="0.000000"
       crs:LocalSharpness="0.000000"
       crs:LocalBrightness="0.000000"
       crs:LocalToningHue="240.000000"
       crs:LocalToningSaturation="0.000000"
       crs:LocalExposure2012="0.987233"
       crs:LocalContrast2012="0.000000"
       crs:LocalHighlights2012="0.000000"
       crs:LocalShadows2012="0.000000"
       crs:LocalWhites2012="0.000000"
       crs:LocalBlacks2012="0.000000"
       crs:LocalClarity2012="0.000000"
       crs:LocalDehaze="0.000000"
       crs:LocalLuminanceNoise="0.000000"
       crs:LocalMoire="0.000000"
       crs:LocalDefringe="0.000000"
       crs:LocalTemperature="0.000000"
       crs:LocalTint="0.000000">
      <crs:CorrectionMasks>
       <rdf:Seq>
        <rdf:li
         crs:What="Mask/CircularGradient"
         crs:MaskValue="1.000000"
         crs:Top="0.258384"
         crs:Left="0.418652"
         crs:Bottom="0.357164"
         crs:Right="0.569559"
         crs:Angle="0.000000"
         crs:Midpoint="+50"
         crs:Roundness="0"
         crs:Feather="+89"
         crs:Flipped="true"
         crs:Version="+2"/>
       </rdf:Seq>
      </crs:CorrectionMasks>
      <crs:CorrectionRangeMask
       crs:Version="+2"
       crs:Type="0"
       crs:ColorAmount="0.500000"
       crs:LumMin="0.000000"
       crs:LumMax="1.000000"
       crs:LumFeather="0.500000"/>
      </rdf:Description>
     </rdf:li>
    </rdf:Seq>
   </crs:CircularGradientBasedCorrections>
  </rdf:Description>
 </rdf:RDF>
</x:xmpmeta>
